X: 1
T:Girl from the Big House, The
T:Cailn an T Mr
M:6/8
L:1/8
K:Dmix
AG |: FG/F/D DAG |AGA GEA | ~D3 AGE | FG/F/D DAG |
| ~F3 ~G3 | AGA cd/c/A | dcA GEA |1 DED DAG :|2 DED DAB||
|: ~c2 A AGF | ~G3 GFG | AdB cAG | Ad^c dag |
| f{a/f/}ed cAG | FGA GED | dcA GEA |1 DED DAB :|2 DED DAG ||
